bonus-icons/vape-band.svg

<svg viewBox="0 0 20 10" xmlns="http://www.w3.org/2000/svg"><path d="m2 0h16a2 2 0 0 1 2 2v6a2 2 0 0 1 -2 2h-16a2 2 0 0 1 -2-2v-6c0-1.1.9-2 2-2zm-1 2h1.6l.7 4.5.6-4.5h1.7l-1.3 6h-2zm6.8 1.2-.4 2.6h.8zm1-1.2 1.4 6h-1.6l-.2-1h-1.2l-.2 1h-1.6l1.4-6zm3.2 2.6h.3c.2 0 .3 0 .5-.2l.1-.5c0-.5-.2-.8-.6-.8h-.3zm-1.6-2.6h2.4l.8.1a1.5 1.5 0 0 1 .8 1l.1.7c0 .7-.1 1.1-.5 1.4-.3.4-.8.5-1.4.5h-.6v2.3h-1.6zm4.6 0h3.6v1.3h-2v1h1.8v1.2h-1.8v1.2h2v1.3h-3.6z"/></svg>

<svg xmlns="http://www.w3.org/2000/svg" viewBox="0 0 20 10">
  <path d="M2 0h16a2 2 0 0 1 2 2v6a2 2 0 0 1-2 2H2a2 2 0 0 1-2-2V2C0 .9.9 0 2 0zM1 2h1.6l.7 4.5.6-4.5h1.7L4.3 8h-2L1 2zm6.8 1.2l-.4 2.6h.8l-.4-2.6zm1-1.2l1.4 6H8.6l-.2-1H7.2L7 8H5.4l1.4-6h2zM12 4.6h.3c.2 0 .3 0 .5-.2l.1-.5c0-.5-.2-.8-.6-.8H12v1.5zM10.4 2h2.4l.8.1a1.5 1.5 0 0 1 .8 1l.1.7c0 .7-.1 1.1-.5 1.4-.3.4-.8.5-1.4.5H12V8h-1.6V2zM15 2h3.6v1.3h-2v1h1.8v1.2h-1.8v1.2h2V8H15V2z"/>
</svg>
